X: 4285
T: CRAIGPARK
%R: reel
B: James Kerr "Merry Melodies" v.4 p.30 #285
Z: 2016 John Chambers <jc:trillian.mit.edu>
M: C
L: 1/8
K: D
|:\
D2D2 DEFG | A2A2 ABcd |\
[1,3 e2e2 edcB | A^GAB A=GFE :|\
[2,4 cecA BdB^G | A2c2 A2z2 |:\
d2d2 dedc |
BcBA G2B2 |\
e2e2 efed | cdcB A2(Bc) |\
d2d2 dfed | B2e2 g2(fe) |\
fafd egec | d2f2 d2z2 :|

%%sep 1 1 500
%%sep 1 1 500

